epam-assets/icon-sources/18/save-outline.svg

<svg xmlns="http://www.w3.org/2000/svg" width="18" height="18" fill="none" viewBox="0 0 18 18">
  <path fill="#6C6F80" d="M12.75 2.25h-9a1.5 1.5 0 0 0-1.5 1.5v10.5a1.5 1.5 0 0 0 1.5 1.5h10.5c.825 0 1.5-.675 1.5-1.5v-9l-3-3Zm1.5 12H3.75V3.75h8.377l2.123 2.122v8.378ZM9 9a2.247 2.247 0 0 0-2.25 2.25A2.247 2.247 0 0 0 9 13.5a2.247 2.247 0 0 0 2.25-2.25A2.247 2.247 0 0 0 9 9ZM4.5 4.5h6.75v3H4.5v-3Z"/>
</svg>

<svg width="18" height="18" viewBox="0 0 18 18" fill="none" xmlns="http://www.w3.org/2000/svg">
<g id="18/save-outline">
<path id="icon" d="M12.75 2.25H3.75C2.9175 2.25 2.25 2.925 2.25 3.75V14.25C2.25 15.075 2.9175 15.75 3.75 15.75H14.25C15.075 15.75 15.75 15.075 15.75 14.25V5.25L12.75 2.25ZM14.25 14.25H3.75V3.75H12.1275L14.25 5.8725V14.25ZM9 9C7.755 9 6.75 10.005 6.75 11.25C6.75 12.495 7.755 13.5 9 13.5C10.245 13.5 11.25 12.495 11.25 11.25C11.25 10.005 10.245 9 9 9ZM4.5 4.5H11.25V7.5H4.5V4.5Z" fill="#6C6F80"/>
</g>
</svg>
